X:166
T:Have at the French THO1.166
M:2/4
L:1/8
Z:vmp. Peter Dunk 2012.from a transcription by Fynn Titford-Mock 2006
B:Thompson's Compleat Collection of 200 Favourite Country Dances Vol.I,1758
Q:1/4=120
K:A
A|(A/B/c/d/) ee|feee|aeed|cBcA|(A/B/c/d/) ee|fdec|dBcA|GA B:|
|:A|(E/F/G/A/) BB|cABG|(A/B/c/d/) ee|fdec|\
(A/B/c/d/) ea|fdec|dBcA|GA B:|

